X:1
T:Title
%%score { ( 1 4 ) | ( 2 3 ) }
L:1/8
Q:1/4=100
M:4/4
K:F
V:1 treble nm="Grand Piano"
V:4 treble 
V:2 bass 
V:3 bass 
V:1
 C2 D>E F2 [CEG]2 | [CFA]6 z2 | D2 E>^F G2 [DFA]2 | [DGB]6 z2 | [CGB]2 [C^FA]>[CGB] [CAc]2 [CGB]2 | %5
w: R.~Frank~Lehman * * * *|||||
 F2- [Fc]2 =B2 A2 | G4 d3 d | [CEc]6 z2 | C2 D>E F2 [CEG]2 | [CFA]6 z2 | D2 E>^F G2 [DFA]2 | %11
w: ||||||
 [DGB]6 z2 | [GB]2 [^FA]>[GB] [Ac]2 [GB]2 | [CFA]2 [_Ec]2 B2 G2 | z4 E4 | F6 z2 | %16
w: |||||
 [EGc]2 [EGc]>[EGc] [EGc]2 C>C | [EGc]>[EGc] [F_Ac]>[FAc] [EGc]2 C>C | c2 _A2 F2 A2 | [Ec]6 z2 | %20
w: ||||
 [Ac]2 [_A=B]>[=Ac] [_Bd]2 [Ac]2 | [Ac]3 [_A=B] [G_B]4 | [EB]>[_EA] [=EB]>[Ec] [Ed]2 c>B | A6 z2 | %24
w: ||||
 A2 A>A c2 A>G | [DF]>[DG] [DF]>[DG] F2 G2 |[M:17/16] A-<A[Fc]-<[Fc][Ed]>[Ec][EG][Ec]3/2 | %27
w: |||
[M:4/4] F6 z2 |] %28
w: |
V:2
 C,2 D,>E, F,2 C,2 | F,6 z2 | D,2 E,>^F, G,2 D,2 | G,6 z2 | C,2 C,>C, C,2 E,2 | %5
 z2 A,2 [^F,_E]2- [F,CE]2 | [G,CE]4 [G,=B,F]3 [G,B,F] | z2 B,2 G,2 E,2 | C,2 D,>E, F,2 C,2 | %9
 F,6 z2 | D,2 E,>^F, G,2 D,2 | G,6 z2 | [C,C]2 [C,C]>[C,C] [C,C]2 [C,C]2 | z2 A,2 G,2 B,2 | %14
 [C,A,C]4 G,2 z2 | [F,A,C]6 z2 | [C,E,G,C]2 [C,F,_A,C]>[C,F,A,C] [C,E,G,C]2 C,>C, | %17
 [C,E,G,C]>[C,E,G,C] [C,F,_A,C]>[C,F,A,C] [C,E,G,C]2 C,>C, | C2 _A,2 F,2 A,2 | [C,G,]6 z2 | %20
 [F,C]2 [F,D]>[F,C] [F,F]2 [F,C]2 | [C,C]3 [C,C] [C,C]4 | %22
 [C,G,]>[C,^F,] [C,G,]>[C,A,] [C,B,]2 [C,C]2 | [F,CF]6 z2 | %24
 [F,CF]2 [F,CF]>[F,CF] [F,A,_E]2 [F,CE]>[F,A,E] | [B,,B,]>[B,,B,] [B,,B,]>[B,,B,] B,,2 =B,,2 | %26
[M:17/16] [C,F,C]-<[C,F,C][C,A,]-<[C,A,][C,G,]>[C,G,][B,,B,][C,B,]3/2 |[M:4/4] [F,A,]6 z2 |] %28
V:3
 x8 | z2 C,2 A,,2 F,,2 | x8 | z2 D,2 B,,2 G,,2 | x8 | F,4 =B,2 z2 | x8 | C,6 z2 | x8 | %9
 z2 C,2 A,,2 F,,2 | x8 | z2 D,2 B,,2 G,,2 | x8 | F,4 B,,4 | z4 [C,C]4 | x8 | x8 | x8 | x8 | x8 | %20
 x8 | x8 | x8 | x8 | x8 | x8 |[M:17/16] x17/2 |[M:4/4] x8 |] %28
V:4
 x8 | x8 | x8 | x8 | x8 | [CA]2 z2 z4 | x8 | x8 | x8 | x8 | x8 | x8 | x8 | z4 D4 | F4 z2 B,2 | x8 | %16
 x8 | x8 | x8 | x8 | x8 | x8 | z4 z2 E2 | x8 | x8 | z4 [F,D]4 |[M:17/16] x17/2 |[M:4/4] x8 |] %28

